assets/presets/Bright Food.xmp
<x:xmpmeta xmlns:x="adobe:ns:meta/">
  <rdf:RDF xmlns:rdf="http://www.w3.org/1999/02/22-rdf-syntax-ns#">
    <rdf:Description xmlns:crs="http://ns.adobe.com/camera-raw-settings/1.0/"
      crs:Exposure2012="+0.60"
      crs:Contrast2012="+16"
      crs:Highlights2012="-14"
      crs:Shadows2012="+21"
      crs:Whites2012="+12"
      crs:Blacks2012="-8"
      crs:Temperature="5400"
      crs:Tint="+5"
      crs:Saturation="+20"
      crs:Vibrance="+22"
      crs:Sharpness="27"
    />
  </rdf:RDF>
</x:xmpmeta>