assets/presets/Fuji Classic Chrome.xmp
<x:xmpmeta xmlns:x="adobe:ns:meta/">
  <rdf:RDF xmlns:rdf="http://www.w3.org/1999/02/22-rdf-syntax-ns#">
    <rdf:Description xmlns:crs="http://ns.adobe.com/camera-raw-settings/1.0/"
      crs:Exposure2012="+0.40"
      crs:Contrast2012="+22"
      crs:Highlights2012="-20"
      crs:Shadows2012="+15"
      crs:Whites2012="+8"
      crs:Blacks2012="-8"
      crs:Temperature="5900"
      crs:Tint="+5"
      crs:Saturation="+12"
      crs:Vibrance="+12"
      crs:Sharpness="17"
    />
  </rdf:RDF>
</x:xmpmeta>